X:6
T: Jobbágy telkén nevelkedtem
M:2/4
L:1/8
K:F
CD DC | FG A2 | F2 z2 |
CD DC | FG A2 | F2 z2 |
AA AA | BA GG |
BA GG | _EE G2 | D2 z2 |
W: Jobbágytelkén nevelkedtem
W: Jaj, de hamis leány lettem.
W: Jobbágytelki legényeknek
W: Leány kéne szegényeknek

